src/baseIcons/icon-arrow-left.svg

<?xml version="1.0" encoding="UTF-8"?>
<svg  viewBox="0 0 24 24" version="1.1" xmlns="http://www.w3.org/2000/svg" xmlns:xlink="http://www.w3.org/1999/xlink">
    <title>Icons/Basic icons/arrow-left</title>
    <defs>
        <path d="M22.9987,11 L3.4127,11 L7.7057,6.707 C8.0967,6.317 8.0967,5.683 7.7057,5.293 C7.3147,4.902 6.6827,4.902 6.2917,5.293 L0.2917,11.292 C0.1997,11.385 0.1267,11.495 0.0757,11.618 C-0.0253,11.862 -0.0253,12.138 0.0757,12.382 C0.1267,12.505 0.1997,12.615 0.2917,12.708 L6.2917,18.707 C6.4867,18.902 6.7427,19 6.9987,19 C7.2547,19 7.5107,18.902 7.7057,18.707 C8.0967,18.317 8.0967,17.683 7.7057,17.293 L3.4127,13 L22.9987,13 C23.5507,13 23.9987,12.552 23.9987,12 C23.9987,11.448 23.5507,11 22.9987,11"  id="path-1"></path>
    </defs>
    <g  id="Icons/Basic-icons/arrow-left" stroke="none" stroke-width="1" fill="none" fill-rule="evenodd">
        <mask id="mask-2" fill="white">
            <use xlink:href="#path-1"></use>
        </mask>
        <use  id="Shape" fill="#292929" xlink:href="#path-1"></use>
    </g>
</svg>

<svg xmlns="http://www.w3.org/2000/svg" xmlns:xlink="http://www.w3.org/1999/xlink" viewBox="0 0 24 24"><path d="M22.9987 11H3.4127l4.293-4.293c.391-.39.391-1.024 0-1.414-.391-.391-1.023-.391-1.414 0l-6 5.999c-.092.093-.165.203-.216.326-.101.244-.101.52 0 .764.051.123.124.233.216.326l6 5.999c.195.195.451.293.707.293.256 0 .512-.098.707-.293.391-.39.391-1.024 0-1.414L3.4127 13h19.586c.552 0 1-.448 1-1s-.448-1-1-1" id="a"/></svg>
